<?xml version="1.0" encoding="UTF-8"?>
<map version="1.10" tiledversion="1.10.2" orientation="orthogonal" renderorder="right-down" width="30" height="20" tilewidth="32" tileheight="32" infinite="0" nextlayerid="18" nextobjectid="99">
 <editorsettings>
  <export target="interactive-resume.tmj" format="json"/>
 </editorsettings>
 <tileset firstgid="1" name="Room_Builder_free_32x32" tilewidth="32" tileheight="32" tilecount="391" columns="17">
  <image source="src/Room_Builder_free_32x32.png" width="544" height="736"/>
 </tileset>
 <tileset firstgid="392" name="Interiors_free_32x32" tilewidth="32" tileheight="32" tilecount="1424" columns="16">
  <image source="src/Interiors_free_32x32.png" width="512" height="2848"/>
 </tileset>
 <layer id="7" name="Background" width="30" height="20">
  <data encoding="csv">
0,0,0,0,0,0,0,0,0,0,0,0,0,0,0,0,0,0,0,0,0,0,0,0,0,0,0,0,0,0,
0,0,0,0,0,0,0,0,0,0,0,0,0,0,0,0,0,0,0,0,0,0,0,0,0,0,0,0,0,0,
0,0,0,0,0,0,0,0,0,0,0,0,0,0,0,0,0,0,0,0,0,0,0,0,0,0,0,0,0,0,
0,0,267,268,268,268,268,270,270,270,270,270,270,268,286,235,251,287,270,270,270,270,268,270,268,268,268,270,0,0,
0,0,284,285,285,285,285,285,285,285,285,285,285,285,268,251,251,284,285,285,285,285,285,285,285,285,285,285,0,0,
0,0,284,285,285,285,285,285,285,285,285,285,285,285,285,251,251,284,285,285,285,285,285,285,285,285,285,285,0,0,
0,0,284,285,285,285,285,285,287,287,285,285,285,285,285,251,251,284,285,285,285,285,285,285,285,285,285,285,0,0,
0,0,284,285,285,285,285,285,285,285,285,285,285,285,285,251,251,284,285,285,285,285,285,285,285,285,285,285,0,0,
0,0,284,285,285,285,285,285,285,285,285,285,285,285,285,251,251,284,285,285,285,285,251,251,251,251,251,251,0,0,
0,0,301,302,302,302,286,286,285,285,285,285,285,285,285,251,251,287,285,285,285,285,251,251,251,251,251,251,0,0,
0,0,182,183,183,183,183,183,183,183,183,183,285,285,285,268,268,285,285,285,285,285,268,270,270,270,270,286,0,0,
0,0,250,251,251,251,251,251,251,250,268,268,285,285,285,285,285,285,285,285,285,285,285,285,285,285,285,286,0,0,
0,0,250,251,251,251,251,251,251,250,268,268,285,285,285,285,285,285,285,285,285,285,285,285,285,285,285,285,0,0,
0,0,267,268,268,268,270,270,268,268,268,268,285,285,285,285,285,285,285,285,285,285,285,285,285,285,285,285,0,0,
0,0,284,285,285,285,285,285,285,285,285,285,285,285,285,285,285,285,285,285,285,285,285,285,285,285,285,285,0,0,
0,0,284,285,285,285,285,285,285,285,285,285,0,0,0,0,0,0,285,285,285,285,285,285,285,285,285,285,0,0,
0,0,284,285,285,285,285,285,285,285,285,285,0,0,0,0,0,0,287,287,287,286,285,287,285,285,285,287,0,0,
0,0,0,0,0,0,0,0,268,268,268,268,0,0,0,0,0,0,0,0,0,0,0,0,0,0,0,0,0,0,
0,0,0,0,0,0,0,0,268,268,268,268,0,0,0,0,0,0,0,0,0,0,0,0,0,0,0,0,0,0,
0,0,0,0,0,0,0,0,0,0,0,0,0,0,0,0,0,0,0,0,0,0,0,0,0,0,0,0,0,0
</data>
 </layer>
 <layer id="12" name="UnderTile" width="30" height="20">
  <data encoding="csv">
0,0,0,0,0,0,0,0,0,0,0,0,0,0,0,0,0,0,0,0,0,0,0,0,0,0,0,0,0,0,
0,0,0,0,0,0,0,0,0,0,0,0,0,0,0,0,0,0,0,0,0,0,0,0,0,0,0,0,0,0,
0,0,0,0,0,0,0,0,0,0,0,0,0,0,0,0,0,0,0,0,0,0,0,0,0,0,0,0,0,0,
0,0,0,0,853,854,0,0,0,0,0,0,0,0,0,0,0,0,0,0,0,1573,0,0,0,0,0,0,0,0,
0,0,0,0,869,870,0,0,0,0,0,0,0,0,0,0,0,0,0,0,0,0,0,0,0,0,0,0,0,0,
0,0,0,0,1605,0,0,0,0,0,0,0,0,0,0,0,0,0,0,0,0,0,0,0,0,0,0,0,0,0,
0,0,0,0,1621,0,0,0,0,0,0,0,0,0,0,0,0,0,0,0,0,0,0,0,0,0,0,0,0,0,
0,0,0,0,0,0,0,0,0,0,0,0,0,0,0,0,0,0,0,0,0,0,0,0,0,0,0,0,0,0,
0,0,0,0,0,0,0,0,0,0,0,0,0,0,0,0,0,0,0,0,0,0,0,0,0,0,0,0,0,0,
0,0,0,0,0,0,0,0,0,0,0,0,0,0,0,0,0,0,0,0,0,0,0,0,757,758,0,0,0,0,
0,0,0,0,0,0,0,0,0,0,0,0,0,0,0,0,0,0,0,0,0,0,0,0,0,895,0,0,0,0,
0,0,0,0,0,0,0,0,0,0,0,0,0,0,0,0,0,0,0,0,0,0,0,0,0,0,0,0,0,0,
0,0,0,0,0,0,0,0,0,0,0,0,0,0,0,0,0,0,0,0,0,0,0,0,0,0,0,0,0,0,
0,0,0,0,0,0,0,0,0,0,0,0,0,0,0,0,0,0,0,0,0,0,0,0,0,0,0,0,0,0,
0,0,0,0,0,0,0,0,0,0,0,0,0,0,0,0,0,0,0,0,0,0,0,0,0,0,0,0,0,0,
0,0,0,0,0,0,0,0,0,0,0,0,0,0,0,0,0,0,0,0,0,0,0,0,0,0,0,0,0,0,
0,0,0,0,0,0,0,0,0,0,0,0,0,0,0,0,0,0,0,0,0,1579,0,1579,0,0,0,0,0,0,
0,0,0,0,0,0,0,0,0,757,758,0,0,0,0,0,0,0,0,0,0,0,0,0,0,0,0,0,0,0,
0,0,0,0,0,0,0,0,0,773,774,0,0,0,0,0,0,0,0,0,0,0,0,0,0,0,0,0,0,0,
0,0,0,0,0,0,0,0,0,0,0,0,0,0,0,0,0,0,0,0,0,0,0,0,0,0,0,0,0,0
</data>
 </layer>
 <layer id="5" name="Tiles" width="30" height="20">
  <data encoding="csv">
0,0,0,0,0,0,0,0,0,0,0,0,0,0,0,0,0,0,0,0,0,0,0,0,0,0,0,0,0,0,
0,29,121,121,121,121,121,121,121,121,121,121,121,121,121,49,51,121,121,121,121,121,121,121,121,121,121,121,31,0,
0,46,138,138,138,138,138,138,138,138,138,138,138,138,138,66,68,138,138,138,138,138,138,138,138,138,138,138,48,0,
0,6,0,0,0,0,0,0,0,0,0,0,0,0,0,66,68,0,0,0,0,0,0,0,0,0,0,0,48,0,
0,6,0,0,0,0,0,0,0,0,0,0,0,0,0,66,68,0,0,0,0,0,0,0,0,0,0,0,48,0,
0,6,0,0,0,0,0,0,0,0,0,0,0,0,0,66,68,0,0,0,0,0,0,0,0,0,0,0,48,0,
0,6,0,0,0,0,0,0,0,0,0,0,0,0,0,66,68,0,0,0,0,0,0,0,0,0,0,0,48,0,
0,6,0,0,0,0,0,0,0,0,0,0,0,0,0,127,129,0,0,0,0,0,0,0,0,0,0,0,48,0,
0,6,0,0,0,0,0,0,0,0,0,0,0,0,0,124,126,0,0,0,0,0,120,121,121,121,121,121,48,0,
0,6,0,0,0,0,0,0,0,0,0,0,0,0,0,137,139,0,0,0,0,0,137,138,138,138,138,138,48,0,
0,6,121,121,121,121,121,121,121,121,121,122,0,0,0,0,0,0,0,0,0,0,0,0,0,0,0,0,48,0,
0,6,125,125,125,125,125,125,125,125,125,126,0,0,0,0,0,0,0,0,0,0,0,0,0,0,0,0,48,0,
0,6,145,145,145,145,145,145,138,138,138,139,0,0,0,0,0,0,0,0,0,0,0,0,0,0,0,0,48,0,
0,6,0,0,0,0,0,0,0,0,0,0,0,0,0,0,0,0,0,0,0,0,0,0,0,0,0,0,48,0,
0,6,0,0,0,0,0,0,0,0,0,0,0,0,0,0,0,0,0,0,0,0,0,0,0,0,0,0,48,0,
0,6,0,0,0,0,0,0,0,0,0,0,41,64,64,64,64,40,0,0,0,0,0,0,0,0,0,0,48,0,
0,6,0,0,0,0,0,0,0,0,0,0,48,0,0,0,0,46,0,0,0,0,0,0,0,0,0,0,48,0,
0,63,64,64,64,64,64,40,0,0,0,0,48,0,0,0,0,63,64,64,64,64,64,64,64,64,64,64,65,0,
0,0,0,0,0,0,0,46,0,0,0,0,48,0,0,0,0,0,0,0,0,0,0,0,0,0,0,0,0,0,
0,0,0,0,0,0,0,63,64,64,64,64,65,0,0,0,0,0,0,0,0,0,0,0,0,0,0,0,0,0
</data>
 </layer>
 <layer id="14" name="Collidables" width="30" height="20">
  <data encoding="csv">
0,0,0,0,0,0,0,0,0,0,0,0,0,0,0,0,0,0,0,0,0,0,0,0,0,0,0,0,0,0,
0,0,0,1458,1459,0,0,0,0,0,0,0,0,0,0,0,0,683,0,0,0,0,687,0,616,617,0,0,0,0,
0,0,0,1474,1475,1048,1049,1323,1324,1554,1555,1554,1555,0,0,0,0,699,1556,1557,1556,1557,703,971,632,633,0,0,0,0,
0,0,1681,1682,0,0,0,1355,1356,1570,1571,1570,1571,1520,1521,0,0,714,1572,1573,1572,1460,719,987,0,0,1140,1322,0,0,
0,0,1697,1698,0,0,0,0,0,0,0,0,0,1536,1537,0,0,0,0,0,0,1476,0,0,0,0,0,735,0,0,
0,0,1729,1730,0,0,0,0,973,974,0,0,0,0,0,0,0,0,0,0,0,0,0,0,0,0,1679,751,0,0,
0,0,1713,1714,0,0,0,0,989,990,0,0,0,0,0,0,0,1797,0,0,0,0,0,552,553,554,1695,1696,0,0,
0,0,899,0,0,0,0,0,0,0,0,0,0,0,0,0,0,1301,0,0,0,0,0,568,569,570,1711,1712,0,0,
0,0,915,0,0,0,0,0,0,0,0,0,0,0,0,0,0,1317,0,0,0,0,0,0,0,0,0,0,0,0,
0,0,1497,1125,1126,552,553,554,555,0,0,0,0,0,0,0,0,1333,0,0,0,0,0,0,0,0,0,0,0,0,
0,0,0,0,0,0,778,779,0,0,0,0,0,0,0,0,0,0,0,0,0,0,540,0,0,523,0,506,0,0,
0,0,0,712,713,0,0,0,0,720,721,0,0,0,0,0,0,0,0,0,0,0,520,510,521,539,475,522,0,0,
0,0,833,728,729,0,1098,1099,0,736,737,0,0,0,0,0,0,0,0,0,0,0,0,0,0,0,0,0,0,0,
0,0,0,0,0,0,1114,1115,0,0,0,0,0,0,0,0,0,0,0,0,0,0,0,0,0,0,0,0,0,0,
0,0,0,0,0,0,0,0,0,0,0,0,0,0,0,0,0,0,0,0,0,0,0,0,0,0,0,0,0,0,
0,0,0,0,0,0,0,0,0,0,0,0,0,0,0,0,0,0,607,608,609,0,0,0,0,0,0,0,0,0,
0,0,0,0,0,0,0,0,0,0,0,0,0,0,0,0,0,0,623,624,625,0,0,0,0,0,1138,1139,0,0,
0,0,0,0,0,0,0,0,0,0,0,0,0,0,0,0,0,0,0,0,0,0,0,0,0,0,0,0,0,0,
0,0,0,0,0,0,0,0,0,0,0,0,0,0,0,0,0,0,0,0,0,0,0,0,0,0,0,0,0,0,
0,0,0,0,0,0,0,0,0,0,0,0,0,0,0,0,0,0,0,0,0,0,0,0,0,0,0,0,0,0
</data>
 </layer>
 <layer id="11" name="OverlayTiles" width="30" height="20">
  <data encoding="csv">
0,0,0,0,0,0,0,0,0,0,0,0,0,0,0,0,0,0,0,0,0,0,0,0,0,0,0,0,0,0,
0,0,0,0,0,0,0,0,0,1538,1539,1538,1539,0,0,0,0,683,1540,1541,1540,1541,687,0,0,0,0,0,0,0,
0,0,0,0,0,0,0,0,0,0,0,0,0,1504,1505,0,0,0,0,0,0,0,0,0,0,0,1124,1304,0,0,
0,0,1681,0,0,0,0,0,0,0,0,0,0,0,0,0,0,0,0,0,0,0,0,0,0,0,0,0,0,0,
0,0,1588,1589,0,0,0,0,0,0,0,0,0,0,0,0,0,0,0,0,0,0,0,0,0,0,0,735,0,0,
0,0,0,0,0,0,0,0,973,974,0,0,0,0,0,0,0,1781,0,0,0,0,0,0,0,0,0,1680,0,0,
0,0,0,0,0,0,0,0,0,0,0,0,0,0,0,0,0,0,0,0,0,0,0,0,0,1224,555,0,0,0,
0,0,0,0,0,0,0,0,0,0,0,0,0,0,0,1576,0,1301,0,0,0,0,1167,1168,0,0,571,0,0,0,
0,0,1481,1109,1110,0,0,0,0,0,0,0,0,0,0,1592,648,1317,0,0,0,0,0,1608,0,1013,1014,0,0,0,
0,0,0,0,1106,1107,0,595,733,732,1109,1110,0,0,0,0,0,0,0,0,0,0,0,1624,697,1029,1030,0,0,0,
0,0,738,739,0,0,0,0,0,0,776,777,0,0,0,0,0,0,0,0,0,0,0,0,0,0,0,0,0,0,
0,0,754,755,0,0,794,795,0,0,792,793,0,0,0,0,0,0,0,0,0,0,0,0,0,0,0,0,0,0,
0,0,0,0,0,0,1224,0,0,0,0,0,0,0,0,0,0,0,0,0,0,0,0,0,0,0,0,0,0,0,
0,0,0,0,0,0,0,0,0,0,0,0,0,0,1106,1107,0,0,0,0,0,0,0,0,0,0,0,0,0,0,
0,0,0,0,0,0,0,0,0,0,0,0,1109,1110,1122,1123,1109,1110,0,0,0,0,0,0,0,0,1106,1107,0,0,
0,0,0,0,0,0,0,0,0,0,0,0,0,0,0,0,0,0,0,0,0,0,0,0,0,0,1122,1123,0,0,
0,0,0,0,0,0,0,0,0,0,0,0,0,0,0,0,0,0,0,0,0,0,0,0,0,0,0,0,0,0,
0,0,0,0,0,0,0,0,0,0,0,0,0,0,0,0,0,0,0,0,0,0,0,0,0,0,0,0,0,0,
0,0,0,0,0,0,0,0,0,0,0,0,0,0,0,0,0,0,0,0,0,0,0,0,0,0,0,0,0,0,
0,0,0,0,0,0,0,0,0,0,0,0,0,0,0,0,0,0,0,0,0,0,0,0,0,0,0,0,0,0
</data>
 </layer>
 <objectgroup id="13" name="ObjectCollisions">
  <object id="27" x="866" y="95.6667" width="27.6667" height="18.3333"/>
  <object id="31" x="184.667" y="290" width="75.5" height="33"/>
  <object id="32" x="115.167" y="287.167" width="26" height="28.5"/>
  <object id="34" x="68.5" y="239" width="25" height="28"/>
  <object id="40" x="546" y="276.5" width="25.5" height="27"/>
  <object id="42" x="673" y="109.5" width="25.5" height="28"/>
  <object id="43" x="735.5" y="94.5" width="31.5" height="21.3333"/>
  <object id="44" x="837.5" y="95.5" width="20.5" height="18.5"/>
  <object id="45" x="761" y="193.5" width="76.5" height="62.5"/>
  <object id="47" x="849.5" y="188.5" width="43.5" height="65"/>
  <object id="49" x="65.6364" y="124.182" width="44.3636" height="99.6364"/>
  <object id="50" x="428.333" y="108" width="39.3333" height="36.3333"/>
  <object id="54" x="259.75" y="192" width="56.5" height="33"/>
  <object id="55" x="710" y="319.667" width="27.6667" height="52.6667"/>
  <object id="56" x="710" y="351.667" width="179.333" height="20.6667"/>
  <object id="57" x="865.667" y="318.667" width="23.6667" height="34.6667"/>
  <object id="61" x="192.833" y="399.167" width="60.6667" height="35.6667"/>
  <object id="69" x="233" y="93" width="47" height="22.5"/>
  <object id="70" x="66.1667" y="288.417" width="30.25" height="24.75"/>
  <object id="71" x="543.333" y="89" width="181.667" height="21.6667"/>
  <object id="74" x="586.667" y="496" width="74.6667" height="40.6667"/>
  <object id="75" x="672.667" y="513.333" width="31.3333" height="30"/>
  <object id="76" x="736.667" y="513.333" width="31.3333" height="30"/>
  <object id="77" x="853.334" y="504" width="23.3333" height="24"/>
  <object id="78" x="287.333" y="90.6667" width="128.333" height="21.3333"/>
  <object id="79" x="865.5" y="160.5" width="26" height="28"/>
  <object id="96" x="545.333" y="180" width="27.3333" height="26"/>
 </objectgroup>
 <objectgroup id="17" name="InteractiveObjects">
  <object id="64" name="Projects" type="interactive" x="752" y="86.6667">
   <properties>
    <property name="uiType" value="projects"/>
   </properties>
   <point/>
  </object>
  <object id="65" name="Skills" type="interactive" x="823.5" y="363">
   <properties>
    <property name="uiType" value="skills"/>
   </properties>
   <point/>
  </object>
  <object id="67" name="View" type="interactive" x="287.5" y="197">
   <properties>
    <property name="uiType" value="education"/>
   </properties>
   <point/>
  </object>
  <object id="68" name="Contact" type="interactive" x="224.167" y="408.333">
   <properties>
    <property name="uiType" value="contact"/>
   </properties>
   <point/>
  </object>
  <object id="80" type="arrow" x="207.5" y="385.334">
   <point/>
  </object>
  <object id="81" type="arrow" x="286" y="164.667">
   <point/>
  </object>
  <object id="83" type="arrow" x="812.667" y="330.667">
   <point/>
  </object>
  <object id="84" type="arrow" x="751.333" y="69.6667">
   <point/>
  </object>
  <object id="87" name="Education &amp; Experience Area" type="area" x="61.3333" y="86.6667" width="418" height="202"/>
  <object id="88" name="Projects Area" type="area" x="534.667" y="110.667" width="360" height="177.333"/>
  <object id="89" name="Skills Area" type="area" x="585.333" y="316" width="313.333" height="228.334"/>
  <object id="90" name="Contacts Area" type="area" x="61.3333" y="406.667" width="189.333" height="104"/>
 </objectgroup>
 <objectgroup id="10" name="PlayerPosition">
  <object id="1" name="Player" x="499.167" y="351.166" width="29.6667" height="32"/>
 </objectgroup>
</map>
